X:1
T:Brownsville, LMD
T:Brownsville, LMD
T:Sylvester Main, 1868
T:Public Domain Courtesy of the Cyber Hymnal™
C:Sylvester Main, 1868
Z:Public Domain
Z:Courtesy of the Cyber Hymnal™
%%score ( 1 2 ) 3
L:1/8
Q:1/4=160
M:3/2
K:Bb
V:1 treble 
V:2 treble 
V:3 bass 
V:1
 [DF]4 | [DF]2 [B,D]2 [DF]4 [Fd]4 | [FB]2 [EG]2 [DF]4 [FB]4 | [Fc]2 [Fc]2 [Ec]4 [EF]4 | %4
 [Dd]2 [FB]2 [Fc]4 [EF]4 | [DF]2 [B,D]2 [DF]4 [Fd]4 | [FB]2 [EG]2 [DF]4 [EG]4 | %7
 F2 [DB]2 [Fd]4 [FB]4 | [Fd]2 [Ec]2 !fermata![DB]4 [DB]4 | [Ec]2 [Ec]2 [Ec]4 [DB]4 | %10
 [Fd]2 [DB]2 [DF]4 [DB]4 | [Ec]2 [Ec]2 [Ec]4 [EF]4 | [Dd]2 [FB]2 [Fc]4 [EF]4 | %13
 [DF]2 [B,D]2 [DF]4 [Fd]4 | [FB]2 [EG]2 [DF]4 [EG]4 | F2 [DB]2 [Fd]4 [FB]4 | %16
 [Fd]2 [Ec]2 !fermata![DB]4 |] %17
V:2
 x4 | x12 | x12 | x12 | x12 | x12 | x12 | F2 x10 | x12 | x12 | x12 | x12 | x12 | x12 | x12 | %15
 F2 x10 | x8 |] %17
V:3
 [B,,B,]4 | [B,,B,]2 [B,,F,]2 [B,,B,]4 [B,,B,]4 | [D,B,]2 [E,B,]2 [B,,B,]4 [D,B,]4 | %3
 [F,A,]2 [F,A,]2 [F,A,]4 [F,A,]4 | [B,,B,]2 [D,B,]2 [F,A,]4 [F,A,]4 | %5
 [B,,B,]2 [B,,B,]2 [B,,B,]4 [B,,B,]4 | [D,B,]2 [E,B,]2 [B,,B,]4 [E,B,]4 | %7
 [D,B,]2 [B,,F,]2 [B,,F,]4 [D,B,]4 | [F,B,]2 [F,A,]2 !fermata![B,,B,]4 [B,,B,]4 | %9
 [F,A,]2 [F,A,]2 [F,A,]4 [B,,B,]4 | [B,,B,]2 [B,,F,]2 [B,,F,]4 [B,,F,]4 | %11
 [F,A,]2 [F,A,]2 [F,A,]4 [F,A,]4 | [B,,B,]2 [D,B,]2 [F,A,]4 [F,A,]4 | %13
 [B,,B,]2 [B,,B,]2 [B,,B,]4 [B,,B,]4 | [D,B,]2 [E,B,]2 [B,,B,]4 [E,B,]4 | %15
 [D,B,]2 [B,,F,]2 [B,,F,]4 [D,B,]4 | [F,B,]2 [F,A,]2 !fermata![B,,B,]4 |] %17

